images/item-product-item3.svg

<svg width="64" height="64" viewBox="0 0 64 64" fill="none" xmlns="http://www.w3.org/2000/svg">
<circle cx="32" cy="32" r="32" fill="#61AA45"/>
<path opacity="0.892" fill-rule="evenodd" clip-rule="evenodd" d="M18.1328 12.8203C26.0523 12.7821 33.9689 12.8212 41.8828 12.9375C43.0754 13.3281 43.7655 14.1485 43.9531 15.3984C43.9791 16.1016 44.0052 16.8047 44.0313 17.5078C46.9032 18.1143 48.2834 19.8852 48.1719 22.8203C47.7291 25.138 46.349 26.5182 44.0313 26.9609C44.0052 34.1484 43.9791 41.3359 43.9531 48.5234C43.7395 49.961 42.9191 50.8074 41.4922 51.0625C33.7057 51.1146 25.9193 51.1146 18.1328 51.0625C16.8167 50.788 16.0224 49.9937 15.75 48.6797C15.6979 37.5338 15.6979 26.388 15.75 15.2422C16.0366 13.927 16.8308 13.1197 18.1328 12.8203ZM18.1328 13.8359C25.9454 13.8229 33.7579 13.8359 41.5703 13.875C42.2684 14.1304 42.7242 14.6121 42.9375 15.3203C42.9896 16.0495 42.9896 16.7786 42.9375 17.5078C40.3559 18.0322 38.9627 19.6077 38.7578 22.2344C38.9627 24.8611 40.3559 26.4366 42.9375 26.9609C42.9896 34.1745 42.9896 41.388 42.9375 48.6016C42.7242 49.3098 42.2684 49.7915 41.5703 50.0469C33.7578 50.099 25.9453 50.099 18.1328 50.0469C17.4167 49.8516 16.9609 49.3959 16.7656 48.6797C16.7135 37.5338 16.7135 26.388 16.7656 15.2422C16.9753 14.5248 17.431 14.0561 18.1328 13.8359ZM42.7422 18.5234C45.0261 18.3224 46.4974 19.3119 47.1563 21.4922C47.3953 23.7778 46.4188 25.2492 44.2266 25.9062C41.9409 26.1453 40.4695 25.1687 39.8125 22.9766C39.5895 20.689 40.5661 19.2046 42.7422 18.5234ZM29.5391 46.9609C30.177 46.8574 30.4764 47.1179 30.4375 47.7422C30.0818 48.3123 29.6912 48.3384 29.2656 47.8203C29.1783 47.4748 29.2695 47.1883 29.5391 46.9609Z" fill="white"/>
<path opacity="0.947" fill-rule="evenodd" clip-rule="evenodd" d="M24.5391 15.0078C27.0652 14.9948 29.5912 15.0078 32.1172 15.0469C32.491 15.3016 32.5171 15.588 32.1953 15.9062C29.6432 15.9583 27.0912 15.9583 24.5391 15.9062C24.2298 15.6106 24.2298 15.3111 24.5391 15.0078Z" fill="white"/>
<path opacity="0.883" fill-rule="evenodd" clip-rule="evenodd" d="M33.9922 15.0078C34.4187 14.9768 34.8353 15.0159 35.2422 15.125C35.4585 15.4068 35.4325 15.6672 35.1641 15.9063C34.7474 15.9584 34.3307 15.9584 33.9141 15.9063C33.6887 15.5802 33.7148 15.2807 33.9922 15.0078Z" fill="white"/>
<path opacity="0.906" fill-rule="evenodd" clip-rule="evenodd" d="M29.2266 19.1485C31.1424 18.9988 32.2362 19.8712 32.5078 21.7657C32.4181 23.0012 31.7931 23.8345 30.6328 24.2657C29.0325 24.592 27.9257 24.0061 27.3125 22.5079C27.0234 20.8455 27.6613 19.7257 29.2266 19.1485ZM29.5391 20.086C29.0613 20.2287 28.6836 20.5151 28.4063 20.9454C28.0003 21.8504 28.1956 22.5926 28.9922 23.172C30.1593 23.6234 30.9796 23.2719 31.4531 22.1173C31.5291 20.7738 30.8911 20.0968 29.5391 20.086Z" fill="white"/>
<path opacity="0.867" fill-rule="evenodd" clip-rule="evenodd" d="M44.8516 20.6328C45.4955 20.6127 45.6908 20.8992 45.4375 21.4922C44.6953 22.2344 43.9531 22.9766 43.2109 23.7188C43.0133 23.8299 42.8049 23.8559 42.5859 23.7969C42.2084 23.4193 41.8307 23.0417 41.4531 22.6641C41.3752 22.0912 41.6227 21.8699 42.1953 22C42.3949 22.2546 42.6293 22.437 42.8984 22.5469C43.5412 21.8909 44.1923 21.2529 44.8516 20.6328Z" fill="white"/>
<path opacity="0.901" fill-rule="evenodd" clip-rule="evenodd" d="M29.0703 24.8515C30.9998 24.6769 32.4712 25.4061 33.4844 27.039C34.2066 28.2279 34.4541 29.491 34.2266 30.828C31.3686 30.9572 28.504 30.9833 25.6328 30.9061C25.521 30.8698 25.4299 30.8047 25.3594 30.7108C25.1987 28.3108 26.1231 26.4749 28.1328 25.203C28.4509 25.0757 28.7634 24.9585 29.0703 24.8515ZM29.4609 25.789C29.0869 25.8836 28.7223 26.0268 28.3672 26.2186C27.1115 27.1278 26.4344 28.3647 26.3359 29.9296C28.6797 29.9296 31.0234 29.9296 33.3672 29.9296C33.3059 28.9219 32.9803 28.0104 32.3906 27.1952C31.6614 26.2121 30.6848 25.7433 29.4609 25.789Z" fill="white"/>
<path opacity="0.955" fill-rule="evenodd" clip-rule="evenodd" d="M21.2578 33.6797C26.987 33.6667 32.7162 33.6797 38.4453 33.7188C38.7578 34.0052 38.7578 34.2917 38.4453 34.5781C32.7162 34.6302 26.9869 34.6302 21.2578 34.5781C20.9496 34.2788 20.9496 33.9794 21.2578 33.6797Z" fill="white"/>
<path opacity="0.955" fill-rule="evenodd" clip-rule="evenodd" d="M21.2578 37.8203C26.987 37.8073 32.7162 37.8203 38.4453 37.8594C38.7578 38.1459 38.7578 38.4323 38.4453 38.7188C32.7162 38.7709 26.9869 38.7709 21.2578 38.7188C20.9496 38.4195 20.9496 38.12 21.2578 37.8203Z" fill="white"/>
<path opacity="0.95" fill-rule="evenodd" clip-rule="evenodd" d="M25.4766 41.9609C28.3934 41.9479 31.31 41.9609 34.2266 42C34.5391 42.2865 34.5391 42.5729 34.2266 42.8594C31.3099 42.9115 28.3932 42.9115 25.4766 42.8594C25.1684 42.5601 25.1684 42.2606 25.4766 41.9609Z" fill="white"/>
<path opacity="0.908" fill-rule="evenodd" clip-rule="evenodd" d="M29.4609 45.9452C30.9073 45.9201 31.5453 46.6232 31.375 48.0546C30.9245 49.0283 30.1823 49.3538 29.1484 49.0312C28.2286 48.4382 28.0072 47.6439 28.4844 46.6484C28.7421 46.306 29.0677 46.0716 29.4609 45.9452ZM29.5391 46.9609C29.2695 47.1882 29.1783 47.4747 29.2656 47.8202C29.6912 48.3383 30.0818 48.3123 30.4375 47.7421C30.4764 47.1178 30.177 46.8573 29.5391 46.9609Z" fill="white"/>
</svg>

<svg xmlns="http://www.w3.org/2000/svg" width="64" height="64" fill="none"><circle cx="32" cy="32" r="32" fill="#61AA45"/><path fill="#fff" fill-rule="evenodd" d="M18.133 12.82c7.92-.038 15.836.001 23.75.117 1.192.391 1.883 1.212 2.07 2.461l.078 2.11c2.872.606 4.252 2.377 4.14 5.312-.442 2.318-1.822 3.698-4.14 4.14l-.078 21.563c-.214 1.438-1.034 2.284-2.46 2.54-7.787.052-15.574.052-23.36 0-1.316-.275-2.11-1.07-2.383-2.383a3576.688 3576.688 0 0 1 0-33.438c.287-1.315 1.08-2.122 2.383-2.422Zm0 1.016c7.812-.013 15.625 0 23.437.039.698.255 1.154.737 1.367 1.445.053.73.053 1.459 0 2.188-2.581.524-3.974 2.1-4.18 4.726.206 2.627 1.599 4.203 4.18 4.727.053 7.214.053 14.427 0 21.64-.213.709-.669 1.19-1.367 1.446-7.812.052-15.625.052-23.437 0-.716-.195-1.172-.651-1.367-1.367a3576.688 3576.688 0 0 1 0-33.438c.21-.717.665-1.186 1.367-1.406Zm24.61 4.687c2.283-.2 3.754.789 4.413 2.97.24 2.285-.737 3.756-2.93 4.413-2.285.24-3.757-.737-4.413-2.93-.224-2.287.753-3.771 2.93-4.453ZM29.538 46.961c.638-.104.937.157.898.781-.355.57-.746.596-1.171.078-.088-.345.004-.632.273-.86Z" clip-rule="evenodd" opacity=".892"/><path fill="#fff" fill-rule="evenodd" d="M24.54 15.008c2.525-.013 5.051 0 7.577.039.374.255.4.541.078.86-2.552.051-5.104.051-7.656 0-.31-.296-.31-.596 0-.9Z" clip-rule="evenodd" opacity=".947"/><path fill="#fff" fill-rule="evenodd" d="M33.992 15.008c.427-.031.843.008 1.25.117.217.282.19.542-.078.781a5.018 5.018 0 0 1-1.25 0c-.225-.326-.2-.625.078-.898Z" clip-rule="evenodd" opacity=".883"/><path fill="#fff" fill-rule="evenodd" d="M29.227 19.148c1.915-.15 3.01.723 3.28 2.618-.089 1.235-.714 2.069-1.874 2.5-1.6.326-2.707-.26-3.32-1.758-.29-1.662.348-2.782 1.914-3.36Zm.312.938a1.99 1.99 0 0 0-1.133.86c-.406.904-.21 1.647.586 2.226 1.167.451 1.988.1 2.461-1.055.076-1.343-.562-2.02-1.914-2.031Z" clip-rule="evenodd" opacity=".906"/><path fill="#fff" fill-rule="evenodd" d="M44.852 20.633c.644-.02.839.266.586.86-.743.741-1.485 1.484-2.227 2.226a.803.803 0 0 1-.625.078l-1.133-1.133c-.078-.573.17-.794.742-.664.2.255.434.437.703.547a67.04 67.04 0 0 1 1.954-1.914Z" clip-rule="evenodd" opacity=".867"/><path fill="#fff" fill-rule="evenodd" d="M29.07 24.852c1.93-.175 3.401.554 4.414 2.187.723 1.189.97 2.452.743 3.789-2.858.13-5.723.155-8.594.078a.544.544 0 0 1-.274-.195c-.16-2.4.764-4.236 2.774-5.508.318-.127.63-.244.937-.351Zm.39.937a4.744 4.744 0 0 0-1.093.43c-1.256.909-1.933 2.146-2.031 3.71h7.031a5.103 5.103 0 0 0-.976-2.734c-.73-.983-1.706-1.452-2.93-1.406Z" clip-rule="evenodd" opacity=".901"/><path fill="#fff" fill-rule="evenodd" d="M21.258 33.68c5.729-.013 11.458 0 17.187.039.313.286.313.573 0 .86a945.03 945.03 0 0 1-17.187 0c-.308-.3-.308-.6 0-.9ZM21.258 37.82c5.729-.013 11.458 0 17.187.04.313.286.313.572 0 .859a945.03 945.03 0 0 1-17.187 0c-.308-.3-.308-.599 0-.899Z" clip-rule="evenodd" opacity=".955"/><path fill="#fff" fill-rule="evenodd" d="M25.477 41.96c2.916-.012 5.833 0 8.75.04.312.286.312.573 0 .86-2.917.051-5.834.051-8.75 0-.309-.3-.309-.6 0-.9Z" clip-rule="evenodd" opacity=".95"/><path fill="#fff" fill-rule="evenodd" d="M29.46 45.945c1.447-.025 2.085.678 1.915 2.11-.45.973-1.193 1.299-2.227.976-.92-.593-1.14-1.387-.664-2.383.258-.342.584-.576.977-.703Zm.08 1.016c-.27.227-.362.514-.274.86.425.517.816.491 1.172-.079.038-.624-.261-.885-.899-.781Z" clip-rule="evenodd" opacity=".908"/></svg>
